carriers/postRo.svg

<svg width="128" height="64" viewBox="0 0 128 64" fill="none" xmlns="http://www.w3.org/2000/svg">
<rect width="128" height="64" rx="6" fill="#CC0000"/>
<path fill-rule="evenodd" clip-rule="evenodd" d="M27.2231 15.2394L27.0359 15.8951L19.6738 38.2557H25.5448L28.4804 28.5685C41.262 39.9248 58.4474 44.0889 69.4674 41.9416C85.0624 38.9031 96.4008 33.9555 108.326 13.0103L85.4292 12.57C85.117 12.5156 85.8835 16.9784 84.3666 21.2888C82.2879 27.1953 79.8088 30.5579 75.289 32.7639C83.3469 21.8293 79.0643 14.0577 73.624 10.0878C70.6743 7.93558 67.2684 7.11757 65.5677 7.02283C55.0249 6.43443 46.7789 17.331 50.0636 26.8605C50.3395 27.6609 51.2155 29.1693 52.4423 30.4996C54.8875 33.1509 58.2095 35.6443 57.3268 34.2596C55.7974 31.8613 51.3545 27.0997 52.6483 21.989C55.4399 10.9573 73.1125 13.096 73.0871 23.946C73.0708 30.7862 67.7336 35.9648 61.5312 37.2208C54.2318 38.6989 46.8312 36.695 40.8574 33.5845C37.5061 31.8398 34.7472 30.2276 32.0713 27.8326C31.6571 27.4619 39.1364 28.1344 44.0756 25.391C48.0408 23.1888 50.0809 18.003 46.6699 15.0566C41.6943 10.7587 28.2207 13.1229 21.2684 14.1796L21.2897 15.1791L27.2231 15.2394Z" fill="#FFF500" stroke="#FFF500" stroke-width="0.800126"/>
<path fill-rule="evenodd" clip-rule="evenodd" d="M93.1883 12.7193C90.0317 23.883 82.0704 33.3944 71.7241 34.8769C78.1343 30.9546 76.8758 32.2163 78.9117 30.3409C80.7108 28.6836 82.0124 26.6459 82.761 25.1721C84.6119 21.5294 85.5886 18.2921 85.3882 12.5984L93.1883 12.7193Z" fill="#0062A6" stroke="#FFF500" stroke-width="0.800126"/>
<path fill-rule="evenodd" clip-rule="evenodd" d="M76.9717 40.1871C83.4169 36.3316 89.0567 32.6954 91.9855 29.2794C96.8671 23.586 97.0607 22.2142 100.404 12.8582L108.326 13.0104C102.882 21.543 100.016 26.3188 93.5485 31.736C89.5374 35.0958 83.181 38.439 76.9717 40.1871Z" fill="#CC0000" stroke="#FFF500" stroke-width="0.800126"/>
<path fill-rule="evenodd" clip-rule="evenodd" d="M29.3596 25.3253L32.1628 15.0218C46.8999 12.5476 48.6737 26.5371 29.3596 25.3253Z" fill="#CC0000" stroke="#FFF500" stroke-width="0.800126"/>
<path d="M24.4932 54.1834H22.9768L24.5189 46.8244H27.5105C28.0417 46.8244 28.4632 46.8878 28.7715 47.0129C29.0816 47.1379 29.3267 47.3453 29.5082 47.6349C29.6881 47.9243 29.779 48.2704 29.779 48.6714C29.779 49.0431 29.707 49.4048 29.5631 49.756C29.4191 50.1073 29.2426 50.3882 29.0337 50.5989C28.8245 50.8099 28.5985 50.9709 28.3586 51.0788C28.1171 51.1868 27.7932 51.2707 27.3837 51.3271C27.1474 51.3615 26.7018 51.3768 26.049 51.3768H25.0808L24.4932 54.1834ZM25.3312 50.157H25.7989C26.5973 50.157 27.1318 50.1073 27.3992 50.0061C27.6664 49.9067 27.8789 49.7457 28.0314 49.5246C28.1856 49.3038 28.2625 49.062 28.2625 48.7964C28.2625 48.6202 28.2232 48.4744 28.1445 48.3613C28.0655 48.2466 27.956 48.1643 27.8137 48.1128C27.6715 48.0597 27.3544 48.0341 26.8629 48.0341H25.7782L25.3312 50.157ZM30.3153 51.2963C30.3153 50.8629 30.3821 50.4037 30.5123 49.9222C30.6821 49.2764 30.9425 48.7159 31.292 48.2396C31.6415 47.7651 32.0836 47.3898 32.6148 47.1141C33.1475 46.8363 33.7525 46.6994 34.4325 46.6994C35.3424 46.6994 36.0773 46.9821 36.6378 47.5474C37.1998 48.1128 37.4791 48.8635 37.4791 49.7954C37.4791 50.5733 37.2974 51.3237 36.9324 52.0504C36.5674 52.7767 36.0724 53.3353 35.447 53.726C34.8198 54.1181 34.1123 54.3136 33.3223 54.3136C32.6371 54.3136 32.0613 54.1578 31.5954 53.8476C31.131 53.5357 30.802 53.1503 30.6065 52.6892C30.4132 52.2303 30.3153 51.7659 30.3153 51.2963ZM31.8113 51.2673C31.8113 51.7726 31.9653 52.1958 32.2739 52.5368C32.5822 52.8777 32.9865 53.049 33.4885 53.049C33.8964 53.049 34.2886 52.9137 34.6655 52.6447C35.0427 52.3757 35.3528 51.968 35.5995 51.4198C35.8444 50.873 35.9679 50.3403 35.9679 49.821C35.9679 49.2419 35.8118 48.7879 35.5016 48.4589C35.19 48.1283 34.7942 47.9639 34.3109 47.9639C33.5726 47.9639 32.971 48.3082 32.5069 48.9986C32.0443 49.6875 31.8113 50.4431 31.8113 51.2673ZM38.0667 51.7985L39.5075 51.7229C39.5264 52.1821 39.6051 52.4922 39.7423 52.6517C39.9634 52.9137 40.3729 53.0439 40.9673 53.0439C41.4625 53.0439 41.8207 52.9548 42.0416 52.7785C42.2626 52.6002 42.3742 52.3861 42.3742 52.1358C42.3742 51.9183 42.2833 51.7332 42.1016 51.5826C41.9748 51.4728 41.6253 51.2929 41.0548 51.0462C40.4842 50.7977 40.068 50.5922 39.8058 50.426C39.5435 50.2598 39.3362 50.0457 39.1855 49.7817C39.0346 49.5161 38.9593 49.2078 38.9593 48.8531C38.9593 48.2329 39.1837 47.7206 39.6326 47.3111C40.0817 46.9034 40.7309 46.6994 41.5808 46.6994C42.4443 46.6994 43.1125 46.9016 43.5854 47.3059C44.0584 47.7121 44.3188 48.25 44.3667 48.9233L42.9155 48.9885C42.8777 48.6372 42.7511 48.3665 42.5334 48.1798C42.3157 47.9929 41.9955 47.8987 41.5704 47.8987C41.1524 47.8987 40.8526 47.9725 40.6745 48.1198C40.4946 48.2671 40.4053 48.4522 40.4053 48.6766C40.4053 48.8873 40.4876 49.062 40.6522 49.1992C40.8148 49.3398 41.1782 49.5316 41.7402 49.7765C42.5883 50.1415 43.1262 50.4363 43.3576 50.6641C43.7019 50.9999 43.8751 51.4301 43.8751 51.9543C43.8751 52.6035 43.618 53.1588 43.1039 53.618C42.5898 54.0788 41.8754 54.3084 40.9572 54.3084C40.3248 54.3084 39.7765 54.2023 39.3139 53.9898C38.8498 53.7772 38.5223 53.4826 38.3323 53.1039C38.142 52.7252 38.053 52.2919 38.0667 51.7985ZM40.0781 54.7298H41.6253L41.4746 55.4632C41.2725 56.4244 40.6709 56.9351 39.667 57.0001L39.828 56.2173C40.2324 56.1658 40.4586 55.9773 40.5047 55.6483H39.8881L40.0781 54.7298ZM47.8947 54.1834H46.3783L47.6633 48.0545H45.5062L45.7614 46.8244H51.5597L51.3042 48.0545H49.1745L47.8947 54.1834ZM55.0292 52.5575H52.1113L51.2289 54.1834H49.6734L53.8333 46.8244H55.5159L56.71 54.1834H55.2744L55.0292 52.5575ZM54.8426 51.3323L54.4157 48.3698L52.6392 51.3323H54.8426ZM61.653 54.1834H60.1384L61.6789 46.8244H64.9463C65.5083 46.8244 65.9468 46.8827 66.2587 46.9976C66.5722 47.1141 66.8259 47.3248 67.0177 47.6331C67.2095 47.9399 67.3056 48.3134 67.3056 48.7519C67.3056 49.3773 67.1189 49.8948 66.7436 50.301C66.3682 50.7069 65.8013 50.9587 65.0421 51.0566C65.2357 51.2295 65.4192 51.4591 65.5888 51.7436C65.9279 52.3193 66.3032 53.1332 66.7195 54.1834H65.0918C64.9616 53.7687 64.7063 53.121 64.3242 52.2404C64.1169 51.7659 63.8958 51.4454 63.6613 51.2826C63.5174 51.185 63.267 51.1371 62.909 51.1371H62.2922L61.653 54.1834ZM62.5218 50.032H63.3253C64.1391 50.032 64.6789 49.9838 64.9445 49.8863C65.2101 49.7902 65.4192 49.6377 65.5699 49.4304C65.719 49.2215 65.7943 49.0056 65.7943 48.7778C65.7943 48.5086 65.6864 48.3082 65.4689 48.1747C65.3351 48.0941 65.0457 48.0545 64.6002 48.0545H62.9347L62.5218 50.032ZM68.0079 51.2963C68.0079 50.8629 68.0746 50.4037 68.2049 49.9222C68.3747 49.2764 68.6351 48.7159 68.9845 48.2396C69.334 47.7651 69.7761 47.3898 70.3073 47.1141C70.8401 46.8363 71.445 46.6994 72.1251 46.6994C73.035 46.6994 73.7699 46.9821 74.3303 47.5474C74.8923 48.1128 75.1716 48.8635 75.1716 49.7954C75.1716 50.5733 74.9899 51.3237 74.6249 52.0504C74.2599 52.7767 73.765 53.3353 73.1396 53.726C72.5123 54.1181 71.8049 54.3136 71.0148 54.3136C70.3296 54.3136 69.7539 54.1578 69.2879 53.8476C68.8235 53.5357 68.4945 53.1503 68.2991 52.6892C68.1057 52.2303 68.0079 51.7659 68.0079 51.2963ZM69.5038 51.2673C69.5038 51.7726 69.6579 52.1958 69.9664 52.5368C70.2747 52.8777 70.6791 53.049 71.181 53.049C71.589 53.049 71.9811 52.9137 72.358 52.6447C72.7352 52.3757 73.0453 51.968 73.292 51.4198C73.5369 50.873 73.6604 50.3403 73.6604 49.821C73.6604 49.2419 73.5043 48.7879 73.1942 48.4589C72.8825 48.1283 72.4867 47.9639 72.0034 47.9639C71.2651 47.9639 70.6635 48.3082 70.1994 48.9986C69.7368 49.6875 69.5038 50.4431 69.5038 51.2673ZM79.76 54.1834H78.3241L78.0585 48.0341L76.8884 54.1834H75.5226L77.0595 46.8244H79.2169L79.4429 51.9799L81.9531 46.8244H84.1376L82.5956 54.1834H81.2145L82.6657 48.0786L79.76 54.1834ZM88.911 52.5575H85.9931L85.1107 54.1834H83.5552L87.7151 46.8244H89.3977L90.5918 54.1834H89.1562L88.911 52.5575ZM88.7244 51.3323L88.2975 48.3698L86.521 51.3323H88.7244ZM88.7449 45.4949L87.8608 46.3875H86.6768L88.1673 44.8762H89.5124L90.1259 46.3875H89.1321L88.7449 45.4949ZM97.3989 54.1834H95.9871L93.9998 49.2386L92.9664 54.1834H91.5564L93.0917 46.8244H94.5069L96.4994 51.7488L97.5291 46.8244H98.9342L97.3989 54.1834ZM103.759 52.5575H100.841L99.9585 54.1834H98.403L102.563 46.8244H104.246L105.44 54.1834H104.004L103.759 52.5575ZM103.572 51.3323L103.145 48.3698L101.369 51.3323H103.572ZM101.855 45.0528H102.553C102.63 45.3235 102.733 45.512 102.861 45.6199C102.99 45.7261 103.154 45.7794 103.351 45.7794C103.749 45.7794 104.079 45.5376 104.34 45.0528H105.003C104.866 45.5138 104.643 45.8718 104.335 46.127C104.026 46.3807 103.684 46.5076 103.307 46.5076C102.914 46.5076 102.592 46.3859 102.337 46.1441C102.083 45.9011 101.922 45.5376 101.855 45.0528Z" fill="white"/>
</svg>

<svg xmlns="http://www.w3.org/2000/svg" width="128" height="64" fill="none"><rect width="128" height="64" fill="#C00" rx="6"/><path fill="#FFF500" fill-rule="evenodd" stroke="#FFF500" stroke-width=".8" d="m27.223 15.24-.187.655-7.362 22.36h5.87l2.936-9.687c12.782 11.357 29.967 15.52 40.987 13.374 15.595-3.039 26.934-7.986 38.859-28.932l-22.897-.44c-.312-.054.454 4.408-1.062 8.719-2.08 5.906-4.558 9.269-9.078 11.475 8.058-10.935 3.775-18.706-1.665-22.676-2.95-2.152-6.356-2.97-8.056-3.065-10.543-.589-18.79 10.308-15.504 19.837.276.8 1.151 2.31 2.378 3.64 2.446 2.65 5.767 5.144 4.885 3.76-1.53-2.399-5.972-7.16-4.679-12.271 2.792-11.032 20.464-8.893 20.44 1.957-.017 6.84-5.354 12.019-11.557 13.275-7.3 1.478-14.7-.526-20.674-3.636-3.35-1.745-6.11-3.357-8.786-5.752-.414-.371 7.065.301 12.005-2.442 3.965-2.202 6.005-7.388 2.594-10.334-4.976-4.298-18.45-1.934-25.402-.877l.022 1 5.933.06Z" clip-rule="evenodd"/><path fill="#0062A6" fill-rule="evenodd" stroke="#FFF500" stroke-width=".8" d="M93.188 12.72C90.032 23.882 82.07 33.393 71.724 34.876c6.41-3.922 5.152-2.66 7.188-4.536 1.799-1.657 3.1-3.695 3.849-5.169 1.85-3.643 2.828-6.88 2.627-12.574l7.8.121Z" clip-rule="evenodd"/><path fill="#C00" fill-rule="evenodd" stroke="#FFF500" stroke-width=".8" d="M76.972 40.187c6.445-3.855 12.085-7.492 15.014-10.908 4.881-5.693 5.075-7.065 8.418-16.42l7.922.151c-5.444 8.533-8.31 13.309-14.777 18.726-4.012 3.36-10.368 6.703-16.577 8.451ZM29.36 25.325l2.803-10.303c14.737-2.474 16.51 11.515-2.803 10.303Z" clip-rule="evenodd"/><path fill="#fff" d="M24.493 54.183h-1.516l1.542-7.359h2.992c.53 0 .952.064 1.26.189.31.125.556.332.737.622.18.29.271.635.271 1.036 0 .372-.072.734-.216 1.085a2.56 2.56 0 0 1-.53.843c-.209.21-.434.372-.674.48-.242.108-.566.192-.975.248-.237.035-.682.05-1.335.05h-.968l-.588 2.806Zm.838-4.026h.468c.798 0 1.333-.05 1.6-.15a1.297 1.297 0 0 0 .863-1.21.747.747 0 0 0-.117-.436.66.66 0 0 0-.331-.248c-.142-.053-.46-.079-.951-.079h-1.085l-.447 2.123Zm4.984 1.14c0-.434.067-.893.197-1.375.17-.646.43-1.206.78-1.682.35-.475.792-.85 1.323-1.126.532-.278 1.137-.415 1.817-.415.91 0 1.645.283 2.206.848.562.566.841 1.317.841 2.248 0 .778-.182 1.529-.547 2.255-.365.727-.86 1.285-1.485 1.676-.627.392-1.335.588-2.125.588-.685 0-1.26-.156-1.727-.466-.464-.312-.793-.698-.988-1.159a3.562 3.562 0 0 1-.292-1.393Zm1.496-.03c0 .506.154.929.463 1.27.308.34.712.512 1.215.512.407 0 .8-.135 1.177-.404.377-.27.687-.677.934-1.225.244-.547.368-1.08.368-1.599 0-.58-.156-1.033-.466-1.362-.312-.33-.708-.495-1.191-.495-.738 0-1.34.344-1.804 1.035a3.985 3.985 0 0 0-.696 2.268Zm6.256.531 1.44-.075c.02.46.098.77.235.929.221.262.63.392 1.225.392.495 0 .854-.09 1.075-.265.22-.179.332-.393.332-.643a.694.694 0 0 0-.272-.553c-.127-.11-.477-.29-1.047-.537-.57-.248-.987-.454-1.25-.62a1.827 1.827 0 0 1-.62-.644 1.844 1.844 0 0 1-.226-.929c0-.62.225-1.132.674-1.542.449-.408 1.098-.612 1.948-.612.863 0 1.531.203 2.004.607.473.406.734.944.782 1.617l-1.451.066c-.038-.352-.165-.622-.383-.81-.217-.186-.538-.28-.963-.28-.418 0-.717.073-.895.22a.689.689 0 0 0-.27.558c0 .21.083.385.247.522.163.14.526.333 1.088.578.848.364 1.386.66 1.618.887.344.336.517.766.517 1.29 0 .65-.257 1.205-.771 1.664-.514.46-1.229.69-2.147.69-.632 0-1.18-.106-1.643-.318-.464-.213-.792-.507-.982-.886-.19-.379-.279-.812-.265-1.306Zm2.011 2.932h1.547l-.15.733c-.203.961-.804 1.472-1.808 1.537l.161-.783c.404-.051.63-.24.677-.569h-.617l.19-.918Zm7.817-.547h-1.517l1.285-6.129h-2.157l.255-1.23h5.799l-.256 1.23h-2.13l-1.28 6.13Zm7.134-1.626h-2.918l-.882 1.626h-1.556l4.16-7.359h1.683l1.194 7.36h-1.436l-.245-1.627Zm-.186-1.225-.427-2.962-1.777 2.962h2.204Zm6.81 2.851h-1.515l1.54-7.359h3.268c.562 0 1 .059 1.313.174.313.116.567.327.759.635.192.307.288.68.288 1.119 0 .625-.187 1.143-.562 1.549-.376.406-.943.658-1.702.756.194.172.377.402.547.687.339.575.714 1.39 1.13 2.44h-1.627c-.13-.415-.386-1.063-.768-1.944-.207-.474-.428-.795-.663-.957-.144-.098-.394-.146-.752-.146h-.617l-.639 3.046Zm.869-4.151h.803c.814 0 1.354-.048 1.62-.146.265-.096.474-.248.625-.456.149-.209.224-.424.224-.652 0-.27-.108-.47-.325-.603-.134-.08-.423-.12-.869-.12h-1.665l-.413 1.977Zm5.486 1.264c0-.433.067-.892.197-1.374.17-.646.43-1.206.78-1.682.349-.475.791-.85 1.322-1.126.533-.278 1.138-.415 1.818-.415.91 0 1.645.283 2.205.848.562.566.842 1.317.842 2.248 0 .778-.182 1.529-.547 2.255-.365.727-.86 1.285-1.485 1.676-.628.392-1.335.588-2.125.588-.685 0-1.261-.156-1.727-.466-.465-.312-.793-.698-.989-1.159a3.56 3.56 0 0 1-.291-1.393Zm1.496-.029c0 .506.154.929.462 1.27.309.34.713.512 1.215.512.408 0 .8-.135 1.177-.404.377-.27.687-.677.934-1.225.245-.547.368-1.08.368-1.599 0-.58-.156-1.033-.466-1.362-.312-.33-.707-.495-1.19-.495-.739 0-1.34.344-1.805 1.035a3.985 3.985 0 0 0-.695 2.268Zm10.256 2.916h-1.436l-.266-6.149-1.17 6.15h-1.365l1.537-7.36h2.157l.226 5.156 2.51-5.156h2.185l-1.542 7.36h-1.382l1.452-6.105-2.906 6.104Zm9.151-1.626h-2.918l-.882 1.626h-1.556l4.16-7.359h1.683l1.194 7.36h-1.436l-.245-1.627Zm-.187-1.225-.427-2.962-1.776 2.962h2.203Zm.02-5.837-.883.893h-1.184l1.49-1.512h1.345l.614 1.512h-.994l-.387-.893Zm8.655 8.688h-1.412L94 49.24l-1.034 4.944h-1.41l1.536-7.359h1.415l1.992 4.925 1.03-4.925h1.405l-1.535 7.36Zm6.36-1.626h-2.918l-.882 1.626h-1.556l4.16-7.359h1.683l1.194 7.36h-1.436l-.245-1.627Zm-.187-1.225-.427-2.962-1.776 2.962h2.203Zm-1.717-6.28h.698c.077.272.18.46.308.568.129.106.293.16.49.16.398 0 .728-.242.989-.727h.663c-.137.46-.36.819-.668 1.074a1.58 1.58 0 0 1-1.028.38c-.393 0-.715-.121-.97-.363-.254-.243-.415-.606-.482-1.091Z"/></svg>
